Numix/32/emotes/face-sick.svg

<?xml version="1.0" encoding="UTF-8" standalone="no"?>
<svg
   xmlns:dc="http://purl.org/dc/elements/1.1/"
   xmlns:cc="http://creativecommons.org/ns#"
   xmlns:rdf="http://www.w3.org/1999/02/22-rdf-syntax-ns#"
   xmlns:svg="http://www.w3.org/2000/svg"
   xmlns="http://www.w3.org/2000/svg"
   xmlns:sodipodi="http://sodipodi.sourceforge.net/DTD/sodipodi-0.dtd"
   xmlns:inkscape="http://www.inkscape.org/namespaces/inkscape"
   width="32px"
   height="32px"
   viewBox="0 0 24 24"
   version="1.1"
   id="svg2"
   inkscape:version="0.91 r"
   sodipodi:docname="face-sick.svg">
  <metadata
     id="metadata19">
    <rdf:RDF>
      <cc:Work
         rdf:about="">
        <dc:format>image/svg+xml</dc:format>
        <dc:type
           rdf:resource="http://purl.org/dc/dcmitype/StillImage" />
        <dc:title />
      </cc:Work>
    </rdf:RDF>
  </metadata>
  <defs
     id="defs17" />
  <sodipodi:namedview
     pagecolor="#ffffff"
     bordercolor="#666666"
     borderopacity="1"
     objecttolerance="10"
     gridtolerance="10"
     guidetolerance="10"
     inkscape:pageopacity="0"
     inkscape:pageshadow="2"
     inkscape:window-width="1920"
     inkscape:window-height="1056"
     id="namedview15"
     showgrid="true"
     inkscape:zoom="10.429825"
     inkscape:cx="-11.796222"
     inkscape:cy="20.41958"
     inkscape:window-x="0"
     inkscape:window-y="24"
     inkscape:window-maximized="1"
     inkscape:current-layer="svg2">
    <inkscape:grid
       type="xygrid"
       id="grid4172" />
  </sodipodi:namedview>
  <path
     inkscape:connector-curvature="0"
     id="path5-6"
     d="m 22.499999,11.999999 c 0,4.971775 -4.703124,9 -10.5,9 -5.7968739,0 -10.4999989,-4.028225 -10.4999989,-9 0,-4.9717726 4.698568,-8.9999989 10.4999989,-8.9999989 5.801431,0 10.5,4.0282263 10.5,8.9999989 z m 0,0"
     style="fill:#94dc7a;fill-opacity:1;fill-rule:nonzero;stroke:none" />
  <path
     style="fill:#636363;fill-opacity:1;fill-rule:nonzero;stroke:none"
     d="M 12.410156 12.658203 L 8.8164062 13.621094 C 8.7769822 13.783142 8.75 13.950654 8.75 14.125 C 8.75 15.300391 9.6996093 16.25 10.875 16.25 C 12.050391 16.25 13 15.300391 13 14.125 C 13 13.554832 12.774439 13.039491 12.410156 12.658203 z "
     transform="scale(0.74999998,0.74999998)"
     id="path4169" />
  <path
     style="fill:#636363;fill-opacity:1;fill-rule:nonzero;stroke:none"
     d="M 19.589844 12.658203 C 19.225561 13.039491 19 13.554832 19 14.125 C 19 15.300391 19.949609 16.25 21.125 16.25 C 22.300391 16.25 23.25 15.300391 23.25 14.125 C 23.25 13.950654 23.223018 13.783142 23.183594 13.621094 L 19.589844 12.658203 z "
     transform="scale(0.74999998,0.74999998)"
     id="path4171" />
  <rect
     style="opacity:1;fill:#636363;fill-opacity:1;fill-rule:nonzero;stroke:none;stroke-width:1.5;stroke-linecap:butt;stroke-linejoin:miter;stroke-miterlimit:4;stroke-dasharray:none;stroke-dashoffset:0;stroke-opacity:1"
     id="rect4176"
     width="6"
     height="1.125"
     x="17.152544"
     y="2.6194789"
     rx="0.5"
     ry="0.5"
     transform="matrix(0.70710678,0.70710678,-0.70710678,0.70710678,0,0)" />
  <rect
     ry="0.5"
     rx="0.5"
     y="-20.715042"
     x="0.18197984"
     height="1.125"
     width="6"
     id="rect4178"
     style="opacity:1;fill:#636363;fill-opacity:1;fill-rule:nonzero;stroke:none;stroke-width:1.5;stroke-linecap:butt;stroke-linejoin:miter;stroke-miterlimit:4;stroke-dasharray:none;stroke-dashoffset:0;stroke-opacity:1"
     transform="matrix(-0.70710678,0.70710678,-0.70710678,-0.70710678,0,0)" />
</svg>

<svg xmlns="http://www.w3.org/2000/svg" width="32" height="32" viewBox="0 0 24 24">
 <path d="m 22.5 12 c 0 4.972 -4.703 9 -10.5 9 -5.797 0 -10.5 -4.03 -10.5 -9 0 -4.972 4.699 -9 10.5 -9 5.801 0 10.5 4.03 10.5 9 z m 0 0" style="fill:#94dc7a;fill-opacity:1;stroke:none;fill-rule:nonzero"/>
 <path d="m 12.41 12.658 l -3.594 0.963 c -0.039 0.162 -0.066 0.33 -0.066 0.504 c 0 1.175 0.95 2.125 2.125 2.125 c 1.175 0 2.125 -0.95 2.125 -2.125 c 0 -0.57 -0.226 -1.086 -0.59 -1.467 z" transform="scale(0.74999998,0.74999998)" style="fill:#636363;fill-opacity:1;stroke:none;fill-rule:nonzero"/>
 <path d="m 19.59 12.658 c -0.364 0.381 -0.59 0.897 -0.59 1.467 c 0 1.175 0.95 2.125 2.125 2.125 c 1.175 0 2.125 -0.95 2.125 -2.125 c 0 -0.174 -0.027 -0.342 -0.066 -0.504 l -3.594 -0.963 z" transform="scale(0.74999998,0.74999998)" style="fill:#636363;fill-opacity:1;stroke:none;fill-rule:nonzero"/>
 <rect width="6" height="1.125" x="17.15" y="2.619" rx="0.5" transform="matrix(0.70710678,0.70710678,-0.70710678,0.70710678,0,0)" style="fill:#636363;opacity:1;fill-opacity:1;stroke:none;fill-rule:nonzero"/>
 <rect rx="0.5" y="-20.715" x="0.182" height="1.125" width="6" transform="matrix(-0.70710678,0.70710678,-0.70710678,-0.70710678,0,0)" style="fill:#636363;opacity:1;fill-opacity:1;stroke:none;fill-rule:nonzero"/>
</svg>
